X:489
T: FALL HEREIN FALL HEREIN DU KUEHLER TAU
N: E0447A
O: Europa, Mitteleuropa, Deutschland
R: Liebes - Lied
M: 2/4
L: 1/16
K: A
 | A2F2F4 | A2F2F4 |
A4B3A | F4z2
AB | A2=G2E2G2 | F4z2
F2 | E2E2EAA2 | A2c2c2
c2 | B2B2edB2 | A4z4

@@@ Tune index: 4139
